X: 18
T:The Five Wells
% Nottingham Music Database
S:Mick Peat
N:Taken from A Train's song
M:6/8
P: ABA
K:F
P:A
|:"F"F2A c2A|"Bb"Bcd "F"c2A|"Bb"Bcd "F"c2A|"G"AGF "C"G3|"F"F2A c2A|\
"Bb"Bcd "F"c2A|"Bb"def "F"c2A|"C"BAG "F" F3:|
P:B
"C  drone"G2G c2B|ABG GFE|G2G c2B|ABF G3|G2G c2B|ABG GFE|G2G c2B|ABF "C7"G3|

